lib/logo_updates/nrk-logo-nrk-tegnspraak-with-bg.svg

<svg width="465" height="84" viewBox="0 0 465 84" fill="none" xmlns="http://www.w3.org/2000/svg">
<rect width="465" height="84" fill="#1767CE"/>
<path d="M20 63V21.0038H33.7802V63H20ZM52.5283 27.6877L60.4532 63H45.3721L35.9092 21.0038H44.3676C46.3072 20.9786 48.1892 21.6624 49.6607 22.9264C51.1347 24.1373 52.1473 25.8184 52.5283 27.6877ZM62.5233 63V21.0038H76.3035V63H62.5233ZM86.7116 36.9743C85.2267 36.9888 83.7656 36.6003 82.4839 35.8504C81.2193 35.1194 80.1688 34.0689 79.438 32.8041C78.6872 31.5222 78.2986 30.0607 78.3134 28.5751C78.2964 27.0986 78.6853 25.6458 79.438 24.3755C80.1766 23.1245 81.2259 22.0853 82.4839 21.3588C83.766 20.6098 85.2269 20.2213 86.7116 20.2348C88.1877 20.2189 89.6399 20.6078 90.9108 21.3588C92.1562 22.0917 93.1943 23.13 93.9271 24.3755C94.6789 25.6462 95.0677 27.0987 95.0517 28.5751C95.0655 30.0605 94.6769 31.5218 93.9271 32.8041C93.202 34.0633 92.1627 35.113 90.9108 35.8504C89.6398 36.6029 88.1866 36.9918 86.7097 36.9743H86.7116ZM97.1807 63V21.0038H110.962V63H97.1807ZM128.408 43.9538C128.447 43.9946 128.742 44.4776 129.295 45.403C129.848 46.3283 130.567 47.5114 131.454 48.952C132.341 50.392 133.277 51.9199 134.262 53.536C135.247 55.1521 136.174 56.6803 137.043 58.1202C137.908 59.5602 138.894 61.1867 140 63H124.859C123.912 61.4621 123.055 60.0721 122.286 58.83C121.517 57.5878 120.7 56.2471 119.833 54.8077C118.965 53.3698 118.107 51.9699 117.259 50.6081C116.41 49.2464 115.681 48.0536 115.071 47.0297C114.459 46.0051 114.035 45.3149 113.799 44.9594C113.214 44.0771 112.868 43.058 112.794 42.0019C112.853 40.9883 113.179 40.0084 113.74 39.1619C113.976 38.7676 114.41 38.0675 115.041 37.062C115.672 36.0564 116.411 34.8637 117.259 33.4835C118.106 32.1034 118.965 30.6936 119.833 29.2543C120.702 27.815 121.519 26.4643 122.286 25.2025C123.056 23.9419 123.914 22.5421 124.859 21.0029H140L128.289 40.1082C127.926 40.6755 127.722 41.3292 127.697 42.0019C127.736 42.7081 127.983 43.3871 128.406 43.9538H128.408Z" fill="white"/>
<path d="M156 26.156H169.574V63.0246H175.797V26.156H189.313V20.9398H156V26.156Z" fill="#D9E9FF"/>
<path d="M217.883 36.6179C216.746 35.1431 215.244 33.9892 213.527 33.2689C211.618 32.49 209.571 32.1068 207.51 32.1427C205.434 32.1074 203.374 32.5114 201.464 33.3282C199.728 34.0886 198.179 35.2218 196.93 36.6476C195.642 38.1454 194.674 39.89 194.084 41.7748C193.408 43.9321 193.078 46.1827 193.107 48.4431C193.023 51.2992 193.622 54.134 194.854 56.7119C195.981 58.9457 197.8 60.7548 200.041 61.8687C202.67 63.1071 205.554 63.7062 208.459 63.6173C209.856 63.6293 211.252 63.5402 212.636 63.3506C213.794 63.1841 214.934 62.9163 216.045 62.5503C217.146 62.1809 218.217 61.7251 219.247 61.1871L219.661 56.6229C218.91 56.8995 218.149 57.1762 217.378 57.4528C216.608 57.7294 215.808 57.9764 214.978 58.1937C214.141 58.413 213.289 58.5715 212.429 58.6679C211.564 58.7665 210.693 58.816 209.822 58.8161C208.266 58.8413 206.712 58.672 205.198 58.3123C203.976 58.0205 202.846 57.4299 201.909 56.5933C200.961 55.6916 200.266 54.5573 199.893 53.3036C199.506 52.0339 199.289 50.7184 199.247 49.3915H220.668C220.96 46.9401 220.85 44.4575 220.342 42.0415C219.925 40.0768 219.086 38.2261 217.883 36.6179ZM202.946 38.0405C204.337 37.1962 205.943 36.7741 207.569 36.8254C209.197 36.744 210.805 37.2139 212.133 38.1591C213.313 39.1009 214.156 40.4012 214.533 41.8637C214.829 42.9451 214.974 44.062 214.966 45.1831H199.377C199.487 44.0011 199.74 42.8369 200.13 41.7155C200.636 40.2125 201.626 38.92 202.946 38.0405Z" fill="#D9E9FF"/>
<path d="M247.075 32.9133C246.169 32.6654 245.249 32.4773 244.318 32.3502C243.257 32.2075 242.187 32.1382 241.117 32.1427C239.183 32.1348 237.268 32.5179 235.486 33.2689C233.7 34.0248 232.079 35.1221 230.714 36.4993C229.259 37.9844 228.138 39.7627 227.424 41.7155C226.597 44.0043 226.196 46.4248 226.239 48.858C226.174 51.5348 226.689 54.1939 227.749 56.6526C228.679 58.7553 230.217 60.5309 232.166 61.7502C234.299 63.0082 236.744 63.6351 239.219 63.558C241.393 63.5503 243.546 63.1278 245.561 62.3133C246.766 61.8225 247.902 61.1773 248.94 60.3938V62.0169C248.964 63.3524 248.774 64.6832 248.378 65.9586C248.036 67.0286 247.447 68.0031 246.659 68.8038C245.809 69.6193 244.77 70.2101 243.635 70.5227C242.159 70.9283 240.631 71.118 239.1 71.0859C237.883 71.084 236.666 71.0148 235.456 70.8784C234.185 70.7348 232.927 70.497 231.691 70.1671C230.419 69.8281 229.171 69.4023 227.957 68.8927L228.609 74.1088C229.699 74.5511 230.818 74.9176 231.959 75.2055C233.158 75.5083 234.376 75.7359 235.603 75.887C236.901 76.0467 238.208 76.1259 239.515 76.1242C242.433 76.2156 245.332 75.6377 247.992 74.4349C250.151 73.4294 251.958 71.7979 253.178 69.7522C254.372 67.6497 254.976 65.2641 254.928 62.8468V32.1427L249.13 33.6345C248.46 33.3511 247.774 33.1102 247.075 32.9133ZM248.17 56.6526C247.436 57.0794 246.674 57.4557 245.888 57.7788C245.197 58.063 244.483 58.291 243.754 58.4605C243.045 58.621 242.319 58.7006 241.592 58.6976C239.811 58.7619 238.045 58.3637 236.464 57.5417C235.086 56.7555 234.02 55.5213 233.442 54.0445C232.727 52.1219 232.395 50.0782 232.464 48.0282C232.437 46.3923 232.667 44.7622 233.144 43.1974C233.533 41.9112 234.201 40.727 235.101 39.7298C235.978 38.8027 237.051 38.0837 238.242 37.6256C239.595 37.1129 241.033 36.8615 242.48 36.8846C243.414 36.8839 244.346 36.9632 245.267 37.1217C246.209 37.2881 247.14 37.5158 248.053 37.8034C248.343 37.8943 248.646 38.0148 248.942 38.1254V56.1962C248.681 56.3523 248.415 56.5123 248.17 56.6526Z" fill="#D9E9FF"/>
<path d="M287.351 33.3875C285.59 32.498 283.632 32.0697 281.66 32.1427C279.94 32.1461 278.23 32.416 276.592 32.9429C274.904 33.4806 273.299 34.2485 271.821 35.225C271.249 35.6014 270.698 36.0153 270.161 36.4401V32.202L264.115 33.0911V63.0246H270.161V40.5122C270.746 40.1695 271.35 39.8588 271.969 39.5816C272.802 39.213 273.652 38.8866 274.518 38.6036C275.35 38.3316 276.202 38.1235 277.067 37.9812C277.88 37.8459 278.702 37.7765 279.526 37.7738C280.494 37.7513 281.457 37.9019 282.372 38.2183C283.126 38.4901 283.799 38.949 284.328 39.552C284.872 40.2058 285.257 40.9767 285.454 41.8044C285.706 42.8521 285.826 43.9276 285.809 45.0052V63.0246H291.855V43.7605C291.934 41.5134 291.551 39.2739 290.729 37.181C290.06 35.5737 288.87 34.2378 287.351 33.3875Z" fill="#D9E9FF"/>
<path d="M319.535 49.3915C318.928 48.7484 318.229 48.1991 317.461 47.7614C316.665 47.3059 315.832 46.9192 314.97 46.6056C314.338 46.408 313.716 46.2006 313.103 45.9832C312.491 45.7659 311.878 45.5683 311.266 45.3904C310.653 45.2126 310.06 45.025 309.488 44.8274C308.95 44.6445 308.426 44.4266 307.917 44.1753C307.429 43.9166 306.964 43.6193 306.524 43.2862C306.118 42.9802 305.776 42.5976 305.517 42.16C305.256 41.7106 305.122 41.1981 305.131 40.6782C305.115 40.1067 305.259 39.5421 305.547 39.0481C305.856 38.5629 306.285 38.165 306.792 37.8923C307.412 37.5516 308.082 37.3114 308.777 37.181C309.646 37.0143 310.53 36.9348 311.415 36.9439C311.849 36.9439 312.323 36.9646 312.837 37.0032C313.352 37.0417 313.913 37.1128 314.527 37.2106C315.14 37.3084 315.751 37.4389 316.363 37.5959C316.976 37.753 317.598 37.9318 318.232 38.1294C318.818 38.3095 319.391 38.5273 319.949 38.7814L320.365 33.9802C319.614 33.664 318.873 33.3875 318.143 33.1504C317.413 32.9138 316.671 32.7159 315.92 32.5576C315.186 32.4022 314.444 32.2934 313.697 32.2316C312.965 32.1724 312.244 32.1427 311.533 32.1427C309.896 32.126 308.263 32.3151 306.673 32.7058C305.313 33.0361 304.02 33.5975 302.85 34.3655C301.789 35.067 300.922 36.0253 300.331 37.1514C299.711 38.3921 299.406 39.766 299.442 41.1524C299.423 42.1509 299.584 43.1447 299.917 44.0865C300.198 44.8769 300.619 45.6099 301.161 46.2499C301.688 46.8547 302.297 47.3833 302.969 47.8207C303.669 48.28 304.414 48.6673 305.192 48.9765C305.626 49.1346 306.081 49.2927 306.555 49.4508C307.03 49.6088 307.495 49.757 307.948 49.8953C308.402 50.0346 308.846 50.1719 309.281 50.3102C309.716 50.4486 310.141 50.5868 310.555 50.7251C310.97 50.8635 311.375 50.9919 311.772 51.1104C312.301 51.2983 312.816 51.5262 313.312 51.7921C313.747 52.0224 314.155 52.3007 314.528 52.6219C314.856 52.9085 315.118 53.2622 315.297 53.6592C315.479 54.0696 315.57 54.5144 315.565 54.9632C315.586 55.4017 315.509 55.8395 315.34 56.2445C315.171 56.6495 314.913 57.0116 314.586 57.3046C313.852 57.9178 312.976 58.3358 312.037 58.5197C310.938 58.7625 309.815 58.8817 308.689 58.8754C307.985 58.8705 307.283 58.821 306.585 58.7271C305.814 58.6297 305.004 58.4914 304.155 58.3122C303.305 58.1331 302.436 57.9158 301.546 57.6602C300.657 57.4041 299.759 57.1176 298.85 56.8008L299.087 61.8391C300.113 62.1947 301.051 62.4812 301.902 62.6985C302.753 62.9159 303.563 63.1036 304.333 63.2616C305.075 63.4156 305.828 63.5147 306.585 63.558C307.315 63.5975 308.056 63.6173 308.808 63.6173C310.461 63.6257 312.11 63.4568 313.727 63.1134C315.15 62.8241 316.513 62.2928 317.757 61.5427C318.879 60.8582 319.807 59.8995 320.455 58.7568C321.134 57.5027 321.471 56.0922 321.432 54.6669C321.457 53.6268 321.286 52.5913 320.928 51.6143C320.61 50.7913 320.137 50.0368 319.535 49.3915Z" fill="#D9E9FF"/>
<path d="M351.395 34.0098C349.268 32.7073 346.805 32.058 344.312 32.1427C342.832 32.1499 341.359 32.339 339.926 32.7058C338.376 33.0995 336.883 33.687 335.48 34.4544C335.202 34.6055 334.926 34.7735 334.65 34.9434V32.2019L328.604 33.1504V75.4721H334.65V62.2016C334.691 62.2184 334.729 62.2372 334.769 62.2539C335.864 62.709 337.008 63.0372 338.177 63.232C339.558 63.4598 340.956 63.5689 342.356 63.558C345.025 63.6038 347.656 62.928 349.973 61.602C352.247 60.2535 354.096 58.2917 355.307 55.9413C356.707 53.139 357.39 50.033 357.293 46.902C357.348 44.2548 356.833 41.6267 355.783 39.1963C354.855 37.0783 353.33 35.2762 351.395 34.0098ZM349.825 53.8371C349.113 55.4113 347.919 56.7188 346.416 57.5713C344.746 58.4462 342.878 58.875 340.993 58.8161C340.09 58.8165 339.188 58.7471 338.296 58.6086C337.359 58.4592 336.437 58.2312 335.539 57.9269C335.255 57.8281 334.947 57.7155 334.65 57.6069V38.9009C334.729 38.8644 334.809 38.8169 334.888 38.7814C335.756 38.3862 336.566 38.0503 337.318 37.7737C338.029 37.5083 338.763 37.3099 339.511 37.181C340.177 37.0664 340.851 37.0069 341.526 37.0031C343.354 36.9426 345.167 37.34 346.802 38.159C348.231 38.9372 349.35 40.182 349.973 41.6858C350.727 43.6094 351.08 45.6668 351.011 47.7318C351.074 49.8297 350.669 51.9153 349.825 53.8371Z" fill="#D9E9FF"/>
<path d="M377.029 32.5853C375.921 32.8824 374.863 33.3418 373.889 33.9486C372.877 34.5796 371.942 35.3255 371.102 36.1714C370.963 36.3107 370.826 36.4677 370.688 36.6149V32.2L364.641 33.0891V63.0226H370.688V40.6288C371.138 40.3151 371.602 40.0242 372.081 39.7575C372.674 39.4309 373.288 39.1438 373.919 38.898C374.53 38.6609 375.153 38.4534 375.786 38.2756C376.436 38.0946 377.1 37.9657 377.77 37.8903C378.489 37.8105 379.213 37.7907 379.935 37.831L380.646 32.2592C379.431 32.172 378.21 32.2821 377.029 32.5853Z" fill="#D9E9FF"/>
<path d="M411.824 59.2902C411.391 59.3299 410.955 59.2645 410.552 59.0993C410.15 58.9342 409.793 58.6744 409.513 58.3419C408.963 57.3921 408.734 56.2904 408.861 55.2004L408.979 42.9898C408.992 41.7098 408.833 40.4338 408.505 39.1963C408.217 38.1111 407.735 37.0869 407.083 36.1733C406.423 35.2798 405.586 34.533 404.623 33.9802C403.504 33.3452 402.295 32.8855 401.037 32.6169C399.498 32.2845 397.928 32.1255 396.354 32.1427C395.105 32.1421 393.858 32.2213 392.62 32.3798C391.449 32.527 390.291 32.7548 389.152 33.0614C388.096 33.3479 387.057 33.6942 386.04 34.0987L385.329 39.1371C386.317 38.7814 387.255 38.485 388.144 38.2479C389.033 38.0108 389.893 37.8133 390.723 37.6552C391.536 37.4999 392.357 37.391 393.183 37.3292C393.992 37.2699 394.792 37.2402 395.583 37.2402C396.792 37.2148 397.998 37.3544 399.169 37.6552C400.024 37.869 400.809 38.2975 401.451 38.9C402.023 39.4861 402.432 40.2114 402.637 41.0041C402.89 41.9814 403.009 42.9883 402.993 43.9975L402.986 45.4853L396.057 45.9536C393.688 46.0195 391.353 46.5428 389.182 47.4947C387.557 48.2056 386.154 49.3422 385.121 50.7844C384.245 52.0678 383.78 53.5872 383.788 55.141C383.777 56.599 384.133 58.0363 384.825 59.3199C385.55 60.6384 386.641 61.719 387.967 62.4318C389.584 63.2729 391.391 63.6813 393.212 63.6173C394.919 63.6565 396.618 63.3751 398.221 62.7875C399.607 62.2448 400.875 61.4397 401.955 60.4165C402.365 60.0232 402.754 59.6087 403.121 59.1747C403.236 59.7883 403.453 60.3783 403.763 60.9203C404.292 61.8277 405.104 62.5359 406.075 62.9356C407.148 63.3667 408.297 63.5784 409.453 63.558C409.809 63.558 410.155 63.5481 410.491 63.5284C410.821 63.5085 411.148 63.4589 411.469 63.3802C411.785 63.3002 412.07 63.232 412.328 63.1727C412.56 63.1208 412.788 63.0515 413.01 62.9653L413.662 58.9939C413.335 59.1062 412.997 59.1856 412.654 59.231C412.379 59.2677 412.102 59.2875 411.824 59.2902ZM401.955 56.6229C401.313 57.1312 400.617 57.5684 399.881 57.9269C399.147 58.2832 398.37 58.5422 397.57 58.6975C396.74 58.8574 395.896 58.9368 395.05 58.9346C394.084 58.9622 393.123 58.7802 392.234 58.4012C391.511 58.0871 390.901 57.5598 390.486 56.8896C390.075 56.1792 389.87 55.3686 389.893 54.5483C389.836 53.5601 390.107 52.5807 390.664 51.7624C391.309 51.0093 392.183 50.4887 393.153 50.2806C394.667 49.9237 396.221 49.7643 397.776 49.8064H402.967L402.94 55.6894C402.639 56.0283 402.31 56.3406 401.955 56.6229Z" fill="#D9E9FF"/>
<path d="M392.886 27.4008C394.006 27.9305 395.234 28.1942 396.472 28.1713C397.743 28.1962 399.002 27.9221 400.147 27.3711C401.18 26.8688 402.052 26.0889 402.667 25.1187C403.3 24.0752 403.619 22.8713 403.585 21.6512C403.623 20.7661 403.468 19.8834 403.13 19.0645C402.792 18.2456 402.28 17.5101 401.629 16.9092C400.24 15.6925 398.436 15.0559 396.591 15.131C395.356 15.117 394.133 15.3697 393.005 15.8719C391.946 16.3433 391.049 17.1164 390.426 18.0947C389.767 19.1826 389.437 20.4388 389.478 21.7104C389.437 22.9408 389.756 24.1564 390.397 25.2076C391.008 26.1548 391.87 26.914 392.886 27.4008ZM393.835 18.8653C394.209 18.5336 394.645 18.2791 395.118 18.1163C395.591 17.9536 396.092 17.8858 396.591 17.9169C397.326 17.8837 398.055 18.0584 398.695 18.4207C399.213 18.739 399.625 19.2029 399.881 19.7544C400.146 20.3508 400.278 20.9983 400.266 21.6512C400.278 22.3072 400.136 22.9568 399.851 23.5479C399.583 24.0928 399.16 24.5464 398.636 24.852C397.99 25.1956 397.263 25.3593 396.532 25.3261C395.837 25.3467 395.147 25.2046 394.516 24.9112C393.974 24.6473 393.535 24.209 393.272 23.6665C392.978 23.0361 392.836 22.3461 392.857 21.6512C392.82 21.1446 392.888 20.6359 393.057 20.1567C393.225 19.6775 393.49 19.2379 393.835 18.8653Z" fill="#D9E9FF"/>
<path d="M437.548 63.0246H445.373L430.995 46.8229L445.076 32.7947H437.667L427.524 43.9383H425.338V18.2726L419.292 19.1616V63.0246H425.338V48.5024H425.437L437.548 63.0246Z" fill="#D9E9FF"/>
</svg>

<svg xmlns="http://www.w3.org/2000/svg" viewBox="0 0 465 84"><path fill="#1767CE" d="M0 0h465v84H0z"/><path fill="#fff" d="M20 63V21.004h13.78V63H20Zm32.528-35.312L60.453 63h-15.08l-9.464-41.996h8.459a7.965 7.965 0 0 1 5.293 1.922 8.31 8.31 0 0 1 2.867 4.762ZM62.523 63V21.004h13.78V63h-13.78Zm24.189-26.026a8.213 8.213 0 0 1-4.228-1.124 8.336 8.336 0 0 1-3.046-3.046 8.206 8.206 0 0 1-1.125-4.229 8.056 8.056 0 0 1 1.125-4.2 8.437 8.437 0 0 1 3.046-3.016 8.233 8.233 0 0 1 4.228-1.124 8.083 8.083 0 0 1 4.199 1.124 8.504 8.504 0 0 1 3.016 3.016 8.075 8.075 0 0 1 1.125 4.2 8.226 8.226 0 0 1-1.125 4.23 8.4 8.4 0 0 1-3.016 3.045 8.059 8.059 0 0 1-4.201 1.124h.002ZM97.18 63V21.004h13.781V63H97.181Zm31.227-19.046c.039.04.334.524.887 1.449.553.925 1.272 2.108 2.159 3.549a1143.28 1143.28 0 0 1 5.589 9.168A854.89 854.89 0 0 0 140 63h-15.141c-.947-1.538-1.804-2.928-2.573-4.17a388.795 388.795 0 0 1-2.453-4.022 355.984 355.984 0 0 0-2.574-4.2 210.645 210.645 0 0 1-2.188-3.578 62.13 62.13 0 0 0-1.272-2.07 6.127 6.127 0 0 1-1.005-2.958 5.745 5.745 0 0 1 .946-2.84c.236-.394.67-1.094 1.301-2.1.631-1.006 1.37-2.198 2.218-3.578.847-1.38 1.706-2.79 2.574-4.23.869-1.439 1.686-2.79 2.453-4.052.77-1.26 1.628-2.66 2.573-4.2H140l-11.711 19.106a3.773 3.773 0 0 0-.592 1.894c.039.706.286 1.385.709 1.952h.002Z"/><path fill="#D9E9FF" d="M156 26.156h13.574v36.869h6.223V26.156h13.516V20.94H156v5.216ZM217.883 36.618a10.753 10.753 0 0 0-4.356-3.35 15.225 15.225 0 0 0-6.017-1.125 14.738 14.738 0 0 0-6.046 1.185 12.919 12.919 0 0 0-4.534 3.32 14.512 14.512 0 0 0-2.846 5.127 21.383 21.383 0 0 0-.977 6.668 17.952 17.952 0 0 0 1.747 8.269 11.585 11.585 0 0 0 5.187 5.157 18.43 18.43 0 0 0 8.418 1.748 28.944 28.944 0 0 0 4.177-.266 19.98 19.98 0 0 0 3.409-.8 22.102 22.102 0 0 0 3.202-1.364l.414-4.564c-.751.277-1.512.553-2.283.83-.77.276-1.57.523-2.4.74-.837.22-1.689.379-2.549.475a23.05 23.05 0 0 1-2.607.148 18.699 18.699 0 0 1-4.624-.504 7.582 7.582 0 0 1-3.289-1.719 7.487 7.487 0 0 1-2.016-3.29 15.051 15.051 0 0 1-.646-3.911h21.421a22.682 22.682 0 0 0-.326-7.35 13.858 13.858 0 0 0-2.459-5.424Zm-14.937 1.422a8.4 8.4 0 0 1 4.623-1.215 7.247 7.247 0 0 1 4.564 1.334 6.966 6.966 0 0 1 2.4 3.705c.296 1.081.441 2.198.433 3.32h-15.589c.11-1.183.363-2.347.753-3.468a7.16 7.16 0 0 1 2.816-3.675ZM247.075 32.913a21.419 21.419 0 0 0-2.757-.563 23.285 23.285 0 0 0-3.201-.207 14.347 14.347 0 0 0-5.631 1.126 14.89 14.89 0 0 0-4.772 3.23 14.632 14.632 0 0 0-3.29 5.216 19.978 19.978 0 0 0-1.185 7.143 18.55 18.55 0 0 0 1.51 7.795 11.498 11.498 0 0 0 4.417 5.097 13.08 13.08 0 0 0 7.053 1.808 17.086 17.086 0 0 0 6.342-1.245 15.001 15.001 0 0 0 3.379-1.92v1.624a12.534 12.534 0 0 1-.562 3.942 7.168 7.168 0 0 1-1.719 2.845 7.085 7.085 0 0 1-3.024 1.719 15.863 15.863 0 0 1-4.535.563 32.997 32.997 0 0 1-3.644-.208 25.852 25.852 0 0 1-3.765-.71 28.83 28.83 0 0 1-3.734-1.275l.652 5.216c1.09.442 2.209.809 3.35 1.097 1.199.302 2.417.53 3.644.681 1.298.16 2.605.239 3.912.237a19.12 19.12 0 0 0 8.477-1.69 11.876 11.876 0 0 0 5.186-4.682 13.442 13.442 0 0 0 1.75-6.905V32.143l-5.798 1.492a17.349 17.349 0 0 0-2.055-.722Zm1.095 23.74a18.63 18.63 0 0 1-2.282 1.126c-.691.284-1.405.512-2.134.681-.709.161-1.435.24-2.162.238a10.308 10.308 0 0 1-5.128-1.156 6.936 6.936 0 0 1-3.022-3.498 15.74 15.74 0 0 1-.978-6.016 15.681 15.681 0 0 1 .68-4.83 9.112 9.112 0 0 1 1.957-3.468 8.547 8.547 0 0 1 3.141-2.104 11.444 11.444 0 0 1 4.238-.741c.934-.001 1.866.078 2.787.237.942.166 1.873.394 2.786.681.29.091.593.212.889.322v18.071c-.261.156-.527.316-.772.457ZM287.351 33.388a11.665 11.665 0 0 0-5.691-1.245 16.66 16.66 0 0 0-5.068.8 19.257 19.257 0 0 0-4.771 2.282 23.63 23.63 0 0 0-1.66 1.215v-4.238l-6.046.89v29.933h6.046V40.512a18.69 18.69 0 0 1 1.808-.93 27.1 27.1 0 0 1 2.549-.978c.832-.272 1.684-.48 2.549-.623a15.281 15.281 0 0 1 2.459-.207 8.127 8.127 0 0 1 2.846.444c.754.272 1.427.731 1.956 1.334a5.519 5.519 0 0 1 1.126 2.252c.252 1.048.372 2.124.355 3.201v18.02h6.046V43.76a16.42 16.42 0 0 0-1.126-6.58 7.77 7.77 0 0 0-3.378-3.793ZM319.535 49.392a8.937 8.937 0 0 0-2.074-1.63 16.091 16.091 0 0 0-2.491-1.156 52.076 52.076 0 0 1-1.867-.623 33.13 33.13 0 0 0-1.837-.593 37.097 37.097 0 0 1-1.778-.563c-.538-.182-1.062-.4-1.571-.652a10.298 10.298 0 0 1-1.393-.889 3.893 3.893 0 0 1-1.007-1.126 2.853 2.853 0 0 1-.386-1.482 3.066 3.066 0 0 1 .416-1.63 3.366 3.366 0 0 1 1.245-1.156 6.68 6.68 0 0 1 1.985-.711 13.28 13.28 0 0 1 2.638-.237 19.135 19.135 0 0 1 3.112.267c.613.097 1.224.228 1.836.385.613.157 1.235.336 1.869.533.586.18 1.159.398 1.717.652l.416-4.8a28.098 28.098 0 0 0-2.222-.83 21.78 21.78 0 0 0-2.223-.593 17.825 17.825 0 0 0-2.223-.326 26.835 26.835 0 0 0-2.164-.09 19.533 19.533 0 0 0-4.86.564c-1.36.33-2.653.891-3.823 1.66a7.543 7.543 0 0 0-2.519 2.785 8.459 8.459 0 0 0-.889 4.001 8.326 8.326 0 0 0 .475 2.934c.281.79.702 1.524 1.244 2.164a8.675 8.675 0 0 0 1.808 1.57c.7.46 1.445.847 2.223 1.157a52.792 52.792 0 0 0 2.756.918 93.377 93.377 0 0 1 2.607.83c.415.139.82.267 1.217.385a11.18 11.18 0 0 1 1.54.682c.435.23.843.509 1.216.83a3.032 3.032 0 0 1 1.037 2.341 2.96 2.96 0 0 1-.979 2.342 5.676 5.676 0 0 1-2.549 1.215 15.127 15.127 0 0 1-3.348.355 16.641 16.641 0 0 1-2.104-.148 29.998 29.998 0 0 1-2.43-.415c-.85-.179-1.719-.396-2.609-.652a51.57 51.57 0 0 1-2.696-.86l.237 5.04c1.026.355 1.964.641 2.815.858.851.218 1.661.406 2.431.564.742.154 1.495.253 2.252.296.73.04 1.471.06 2.223.06 1.653.008 3.302-.161 4.919-.505 1.423-.289 2.786-.82 4.03-1.57a7.728 7.728 0 0 0 2.698-2.786 8.123 8.123 0 0 0 .977-4.09 8.293 8.293 0 0 0-.504-3.053 6.91 6.91 0 0 0-1.393-2.222ZM351.395 34.01a12.735 12.735 0 0 0-7.083-1.867 18.04 18.04 0 0 0-4.386.563c-1.55.393-3.043.981-4.446 1.748-.278.151-.554.32-.83.49v-2.742l-6.046.948v42.322h6.046v-13.27c.041.016.079.035.119.052 1.095.455 2.239.783 3.408.978 1.381.228 2.779.337 4.179.326 2.669.046 5.3-.63 7.617-1.956a14.079 14.079 0 0 0 5.334-5.66 18.916 18.916 0 0 0 1.986-9.04 18.463 18.463 0 0 0-1.51-7.706 11.913 11.913 0 0 0-4.388-5.186Zm-1.57 19.827a8.16 8.16 0 0 1-3.409 3.734 10.949 10.949 0 0 1-5.423 1.245 17.53 17.53 0 0 1-2.697-.207 16.862 16.862 0 0 1-2.757-.682 61.755 61.755 0 0 1-.889-.32V38.9c.079-.037.159-.084.238-.12a35.37 35.37 0 0 1 2.43-1.007 12.19 12.19 0 0 1 4.208-.77c1.828-.061 3.641.336 5.276 1.155a7.117 7.117 0 0 1 3.171 3.527 15.178 15.178 0 0 1 1.038 6.046 14.128 14.128 0 0 1-1.186 6.105ZM377.029 32.585a11.639 11.639 0 0 0-3.14 1.364 15.441 15.441 0 0 0-2.787 2.222c-.139.14-.276.297-.414.444V32.2l-6.047.89v29.933h6.047V40.629c.45-.314.914-.605 1.393-.871a15.386 15.386 0 0 1 1.838-.86 20.435 20.435 0 0 1 1.867-.622 12.689 12.689 0 0 1 4.149-.445l.711-5.572a11.292 11.292 0 0 0-3.617.326ZM411.824 59.29a2.702 2.702 0 0 1-2.311-.948 5.093 5.093 0 0 1-.652-3.142l.118-12.21a14.241 14.241 0 0 0-.474-3.794 9.32 9.32 0 0 0-1.422-3.023 8.026 8.026 0 0 0-2.46-2.193 12.593 12.593 0 0 0-3.586-1.363 21.085 21.085 0 0 0-4.683-.474 29.29 29.29 0 0 0-3.734.237 25.642 25.642 0 0 0-3.468.681 28.885 28.885 0 0 0-3.112 1.038l-.711 5.038a34.863 34.863 0 0 1 5.394-1.482 21.762 21.762 0 0 1 2.46-.326c.809-.06 1.609-.089 2.4-.089a13.289 13.289 0 0 1 3.586.415c.855.214 1.64.642 2.282 1.245a4.696 4.696 0 0 1 1.186 2.104c.253.977.372 1.984.356 2.994l-.007 1.487-6.929.469c-2.369.066-4.704.589-6.875 1.54a9.853 9.853 0 0 0-4.061 3.29 7.658 7.658 0 0 0-1.333 4.357 8.667 8.667 0 0 0 1.037 4.179 7.8 7.8 0 0 0 3.142 3.112 10.562 10.562 0 0 0 5.245 1.185c1.707.04 3.406-.242 5.009-.83a11.555 11.555 0 0 0 3.734-2.37c.41-.394.799-.808 1.166-1.242a5.59 5.59 0 0 0 .642 1.745 4.784 4.784 0 0 0 2.312 2.016 8.653 8.653 0 0 0 3.378.622c.356 0 .702-.01 1.038-.03.33-.02.657-.07.978-.148.316-.08.601-.148.859-.207.232-.052.46-.122.682-.208l.652-3.971a5.21 5.21 0 0 1-1.008.237 6.77 6.77 0 0 1-.83.06Zm-9.869-2.667c-.642.508-1.338.945-2.074 1.304a9.39 9.39 0 0 1-2.311.77c-.83.16-1.674.24-2.52.238a6.694 6.694 0 0 1-2.816-.534 3.87 3.87 0 0 1-1.748-1.511 4.427 4.427 0 0 1-.593-2.342 4.491 4.491 0 0 1 .771-2.786 4.527 4.527 0 0 1 2.489-1.481 18.023 18.023 0 0 1 4.623-.475h5.191l-.027 5.883c-.301.34-.63.652-.985.934ZM392.886 27.4c1.12.53 2.348.794 3.586.771a8.11 8.11 0 0 0 3.675-.8 6.187 6.187 0 0 0 2.52-2.252 6.345 6.345 0 0 0 .918-3.468 6.094 6.094 0 0 0-1.956-4.742 7.202 7.202 0 0 0-5.038-1.778 8.577 8.577 0 0 0-3.586.74 5.905 5.905 0 0 0-2.579 2.224 6.571 6.571 0 0 0-.948 3.615 6.313 6.313 0 0 0 .919 3.498 6.098 6.098 0 0 0 2.489 2.193Zm.949-8.535a3.795 3.795 0 0 1 2.756-.948 3.912 3.912 0 0 1 2.104.504c.518.318.93.782 1.186 1.333a4.47 4.47 0 0 1 .385 1.897 4.19 4.19 0 0 1-.415 1.897 3.088 3.088 0 0 1-1.215 1.304 4.087 4.087 0 0 1-2.104.474 4.467 4.467 0 0 1-2.016-.415 2.692 2.692 0 0 1-1.244-1.245 4.45 4.45 0 0 1-.415-2.015 3.706 3.706 0 0 1 .978-2.786ZM437.548 63.025h7.825l-14.378-16.202 14.081-14.028h-7.409l-10.143 11.143h-2.186V18.273l-6.046.889v43.863h6.046V48.502h.099l12.111 14.523Z"/></svg>
